X: 1
T: Sir Charles Sedley's Minuet    [D]
%Q: 3/4=60
O: England 1770
A: Carlisle
R: minuet
B: Thompson, C. & S. (pub) "The Compleat Tutor for the Fife" 1770 p.31 #3
B: Joseph Barnes MS, Carlisle, 1762. [VMP C.Graebe]
N: Barnes has d2fdfd in bar 1, and lacks the natural in bar 9 and the sharp in bar 11.
Z: 2013 John Chambers <jc:trillian.mit.edu>
N: Chords by John Chambers.
M: 3/4
L: 1/8
F:http://localhost/~jc/music/abc/England/CharlesSedleysMinuet.abc	 2014-02-16 161900 UT
K: D
|: "D"d2 fd "A7"ec | "D"d2 "(A7)"e2 "D"f2 | "A7"A2 Bc dB | "(d)"A2 G2 F2 |
|  "D"D2- DF "A7"EG | "D"F2 DF "A7"EG | "D"F2 GF ED | "A7"A6 :|
|: "D"AF DF "D7"A=c | "G"{c}B2 AB G2 | "E7"B^G EG Bd | "A"{d}c2 Bc A2 |
| "A7"ec Ac eg | "D"fd "A7"ec "D"d2 "I"| "A7"A>g f2 Te2 | "D"d6 :|

%%sep 1 1 500

